X:23
T:Cattle in The Corn
K:C
M:2/4
L:1/16
((3e^f^g) || "Am" a2A2 A2(AB) | cABc A2(AG) | EGAB "C" c2(cB) | ABcd "E7" e4 ((3e^f^g) |
"Am" a2A2 A2(AB) | cABc A2(AB) | cBAc "E7" BA^GB | "Am" AG"Em"EG "Am" A4 :||
K:D
|: (cd) | "A" e2(ef) e2cd | efed (cB)A2 | "G" [=g2B2][gB][gB] [g2B2]ef | gfed "(A)" cdef |
"A" [a2c2][ac][ac] [a2c2]ef | afed cBA2 | "G" (GF)GA BAGB | "A" A2AA A4 |]

